X:1
T:Title
%%score ( 1 2 ) ( 3 4 )
L:1/8
M:6/8
K:Bb
V:1 treble nm="Grand Piano, Piano"
V:2 treble 
V:3 bass nm="Grand Piano, Piano"
V:4 bass 
V:1
 z3 z2[Q:1/4=100] [DF] | [Dd]2 [DA] cB[EG] | [DF]2 [EG] [DF]2 [DF] | GA[EB] Bc[=Ed] | %4
w: 1.~It~|came~ up on~ * the~|mid night~ clear,~ that~|glo * rious~ song~ * of~|
[M:5/8] [Fc]-[Fc]- [Fc]3 |[M:1/8] [DF] |[M:3/4] [Dd]2 [DA]c B[EG] | [DF]2 [EG] [DF]2 F | %8
w: old,~ * *|from~|an gels~ ben * ding~|near~ the~ earth~ to~|
 [EG]2 [EG]A G[EF] |[M:5/8] [DB]-[DB]- [DB]3 |[M:1/8] [Dd] |[M:3/4] [Dd]2 .D2 =E[D^F] | %12
w: touch~ their~ harps~ * of~|gold:~ * *|"Peace~|on~ the~ * good~|
 [DG]2 [DA] [DB]2 [Dd] | cB [FA]G A[=EG] |[M:5/8] F-F- F3 |[M:1/8] [EF] | %16
w: will~ to~ men,~ from~|heaven's~ * all gra * cious~|King."~ * *|The~|
[M:3/4] [Dd]2 [DA]c B[EG] | [DF]2 [EG] [DF]2 F | [EG]2 [EG]A G[EF] |[M:5/8] [DB]-[DB]- [DB]3 |] %20
w: world~ in~ so * lemn~|still ness~ lay,~ to~|hear~ the~ an * gels~|sing.~ * *|
V:2
 x6 | z3 .E3 | x6 | .E3 .=E3 |[M:5/8] x5 |[M:1/8] x |[M:3/4] z2 z .E3 | x6 | z2 z .E3 |[M:5/8] x5 | %10
w: ||||||||||
[M:1/8] x |[M:3/4] z2 z .D3 | x6 | F2 z .=E3 |[M:5/8] x5 |[M:1/8] x |[M:3/4] z2 z .E3 | x6 | %18
w: |earth,~|||||||
 z2 z .E3 |[M:5/8] x5 |] %20
w: ||
V:3
 z3 z2 [B,,F,] | [B,,F,]2 [B,,^F,] [B,,G,]2 [B,,A,] | [B,,B,]2 [A,,F,] [B,,F,]2 [B,,B,] | .B,3 z3 | %4
[M:5/8] [F,A,]-[F,A,]- [F,A,]3 |[M:1/8] [B,,F,] |[M:3/4] [B,,F,]2 [B,,^F,] [B,,G,]2 [B,,A,] | %7
 [B,,B,]2 [A,,F,] [B,,F,]2 [D,B,] | z2 z C z2 |[M:5/8] [B,,B,]-[B,,B,]- [B,,B,]3 |[M:1/8] D, | %11
[M:3/4] z2 z ^F, z2 | [B,,G,]2 [D,^F,] G,2 [B,,G,] | .A,2 z B, z2 |[M:5/8] [F,A,]-[F,A,]- [F,A,]3 | %15
[M:1/8] [F,A,] |[M:3/4] [B,,F,]2 [B,,^F,] [B,,G,]2 [B,,A,] | [B,,B,]2 [A,,F,] [B,,F,]2 [D,B,] | %18
 z2 z C z2 |[M:5/8] [B,,B,]-[B,,B,]- [B,,B,]3 |] %20
V:4
 x6 | x6 | x6 | E,F,[G,B,] [G,B,]2 [C,B,] |[M:5/8] x5 |[M:1/8] x |[M:3/4] x6 | x6 | %8
 [E,B,]2 [C,C]F,- [F,B,][F,A,] |[M:5/8] x5 |[M:1/8] x |[M:3/4] D,2 [D,^F,]D,- [D,G,][C,A,] | x6 | %13
 C,-[C,D] [C,C]C,- [C,C][C,B,] |[M:5/8] x5 |[M:1/8] x |[M:3/4] x6 | x6 | %18
 [E,B,]2 [C,C]F,- [F,B,][F,A,] |[M:5/8] x5 |] %20

